ui/client/assets/img/toolbarButtons/paste.svg

<svg xmlns="http://www.w3.org/2000/svg" viewBox="0 0 29.87 29.87"><g data-name="Layer 2"><path d="M12.81 26.35a1.6 1.6 0 01-1.59-1.6v-1.59H7a1.59 1.59 0 01-1.59-1.59V7.24A1.6 1.6 0 017 5.64h1.83s.53-.06.53-.79A1.58 1.58 0 0111 3.52h4.2a1.83 1.83 0 011.59 1.59v-.26c0 .73.53.79.53.79h1.86a1.6 1.6 0 011.59 1.6V11l3.72 3.72v10.03a1.6 1.6 0 01-1.59 1.6zm0-15.4v13.8H22.9v-7.43h-5.84V11zm10.09 4.78l-4.25-4.25v4.25zm-13-8h6.37a2.27 2.27 0 01-.53-1.33 1.33 1.33 0 00-1.34-1.29h-2.65a1.34 1.34 0 00-1.33 1.33 2.27 2.27 0 01-.53 1.33z" fill="#b3b3b3" data-name="aplikacja główna"/></g></svg>

<svg xmlns="http://www.w3.org/2000/svg" viewBox="0 0 29.87 29.87"><defs><style>.cls-1{fill:none;}.cls-2{fill:#b3b3b3;}</style></defs><title>paste</title><g id="Layer_2" data-name="Layer 2"><g id="aplikacja_główna" data-name="aplikacja główna"><rect class="cls-1" width="29.87" height="29.87"/><path class="cls-2" d="M12.81,26.35a1.6,1.6,0,0,1-1.59-1.6V23.16H7a1.59,1.59,0,0,1-1.59-1.59V7.24A1.6,1.6,0,0,1,7,5.64H8.83s.53-.06.53-.79A1.58,1.58,0,0,1,11,3.52H15.2a1.83,1.83,0,0,1,1.59,1.59V4.85c0,.73.53.79.53.79h1.86a1.6,1.6,0,0,1,1.59,1.6V11l3.72,3.72V24.75a1.6,1.6,0,0,1-1.59,1.6Zm0-15.4v13.8H22.9V17.32H17.06V11ZM22.9,15.73l-4.25-4.25v4.25Zm-13-8h6.37a2.27,2.27,0,0,1-.53-1.33A1.33,1.33,0,0,0,14.4,5.11H11.75a1.34,1.34,0,0,0-1.33,1.33A2.27,2.27,0,0,1,9.89,7.77Z"/></g></g></svg>
